X: 22371
T: Lad O'Beirne
R: hornpipe
M: 4/4
K: Gmajor
Bc|:(3dcB gd BdcB|Agfa gf (3gfe|dgec BdcA|FGAG (3FED (3CB,A,|
G,B,DG BGDB,|CEAB cedc|(3BAG BdcAFA|1 (3GFG BAG2:|2 Ggfa ~g2 ga||
|:bgdg bgdg|afdf afdf|(3gag fg efdB|FGAG (3FED (3CB,A,|
G,B,DG BGDB,|CEAB cedc|(3BAG BdcAFA|1 Ggfa ~g2 ga:|2 (3GFG BAG2||

